X:1
T:Donne gentili
T:Donne gentili
T:Girolamo Scotto
T:Source : Secondo Libro delle Muse a tre voci---Venetia---G.Scotto---1562. Editor : André Vierendeels (07/06/16).
T:Notes : Original clefs : C3, C4, F4 Editorial accidentals above the staff Original note values have been halved Square bracket indicates ligature "Quinti toni"  
T:©
T:©
T:©
T:©
T:©
T:©
T:©
T:©
C:Girolamo Scotto
Z:©
%%score [ 1 2 3 ]
L:1/8
Q:1/4=105
M:2/2
K:F
V:1 treble-8 nm="Tenor 1" snm="T 1"
V:2 treble-8 nm="Tenor 2" snm="T 2"
V:3 bass nm="Bass" snm="B"
V:1
 c4 c2 c2 | _e4 d4 | A4 A2 A2 | c2 c2 d3 c | =B2 c2 A2 c2- | cB A4 G2 | A2 c2 c2 B2 | A2 f2 f2 e2 | %8
w: Don- ne gen-|ti- li,|et voi cor-|te- si'a- man- *|||ti che si sag-|gi, che di sag-|
 d2 c2 B2 G2 | A3 B cd e2 | f3 e d3 c/B/ | c2 F3 GAB | c2 A2 B2 A2- | A2 G2 A2 c2 | c2 c2 d2 f2 | %15
w: gi pen- sier no-|dri- * * * te|il _ co- * *|re, no- * * *|* dri- te'in co-|* * re, non|vi sia piu ver-|
 cdef g2 d2 | f6 f2 | c2 _e3 d d2- | d2 c2 d2 d2 | d2 c2 B2 GA | Bc d3 c/B/ c2 | d2 A2 B2 c2 | %22
w: go- * * * * gna|che il|do- lo- * *|* * re, trag-|gia da gl'oc- chi _|_ _ vo- * * *|stri'a- ma- ri pian-|
 B2 G2 ABcd | ef g3 f f2- | f2 e2 f4- | f8 || F4 F2 F2 | A2 A2 G2 G2 | B2 B2 A3 B | c2 c3 d e2 | %30
w: ||* * ti.|_|Poi che da|que bei lu- mi'al-|tie- ri et _|_ san- * *|
 f2 d4 f2- | f2 _e2 d3 e | f2 f2 c2 _e2 | d4 c4- | c4 z4 | z2 c2 d2 f2 | e3 d c2 d2- | %37
w: ti o- ve|_ s'ha po- st'il|pri- mo seg- gio'a-|mo- re,|_|ver- so giu-|sto _ _ mar-|
 d2 cB A2 c2- | cBAG F2 f2- | f2 e2 f4 | z4 z2 f2 | d2 d2 e2 f2 | d2 e3 f g2- | g2 f2 gfed | %44
w: * * * tir pie-|* * * * so'hu- mo-|* * re,|piu|lu- cen- te ch'al|So- * * *||
 c2 F4 c2 | A2 A2 B2 G2- | GABc d2 c2 | B2 G2 A2 c2- | c2 B2 c4 | z8 | z2 d2 c2 B2 | %51
w: le, piu lu-|cen- te ch'al So-|* * * * le perl'|et dia- man- *|* * ti,||e- ra pe-|
 A2 d3 c/B/ c2 | d2 f2 e2 d2- | dc B2 A2 d2- |"^-natural" dc/B/ c2 d2 f2 | f2 f3 e/d/ e2 | %56
w: na si _ _ dol-|ce, e- ra pe-|* * na si dol-|* * * ce in quel|bel vi- * * so,|
 f2 c2 c2 c2 | B2 A3 Bcd | ef g4 f2 | e4 d2 f2 | f2 f2 e4 | f4 z2 c2 | c2 c2 d2 e2 | f3 e d2 f2- | %64
w: ch'io non pos- so|pen- * * * *||* sar, che|pe- na ma-|i, al-|tro sia ch'un de'|ben del pa- ra-|
 f2 e2 g3 f/e/ | d2 c2 c2 c2 | B2 A3 G c2 | d2 f4 e2 | d2 g4 fe | d4 e3 d | ef g3 f f2- | %71
w: * di so, _ _|_ al tro sia|ch'un de' ben del|pa- ra- di-||||
 f2 e2 f4- | f8- | f8 |] %74
w: * * so.|_||
V:2
 A4 A2 A2 | G3 A B4 | F4 F2 F2 | E2 E2 F4 | G2 A2 F2 E2- | E2 F4 ED | E2 A2 A2 G2 | F3 G A4 | %8
w: Don- ne gen-|ti- * li,|don- ne gen-|ti- li'et voi|cor- te- si'a- man-|ti che di _|sag- gi pen- sier|no- * dri-|
 B2 F3 E/D/ E2 | F3 G AB c2 | B2 A4 G2 | A2 D3 EFG | AB c2 d2 c2 | B4 A2 A2 | A2 A2 B2 A2- | %15
w: ||te'il co- re,|no- * * * *|* * dri- te'il co-|* re, non|vi sia piu ver-|
 AB c4 B2 | A2 B4 A2- | A2 G4 F2 | G4 A2 B2 | B2 A2 G2 E2 | F2 F2 G2 G2 | A2 F2 G2 F2- | %22
w: * * go- gna|che il do-|* lo- *|re, che il|do- lo- re, trag-|gia da gl'oc- chi|vo- stri'a- ma- *|
 FE/D/ E2 F2 A2 | G3 F E2 A2 | G4 F4- | F8 || D4 D2 D2 | F2 F2 E2 E2 | D2 D2 F4 | E2 A2 A2 G2 | %30
w: * * * ri pian- ti'a-|ma- ri pian- *|* ti.|_|Poi che da|que bei lu- mi'al-|tie- ri'et san-|ti, o- ve s'ha|
 F2 B4 A2- | A2 G3 A B2- | B2 A3 B c2- |"^-natural" c2 B2 c2 A2 | A2 G2 B2 A2- | AG A2 B2 A2- | %36
w: po- sto'il pri-|* mo _ _|_ seg- gio'a- mo-|* * re, ver-|so giu- sto mar-|* * tir pie- to-|
 A2 G3 F F2- | F2 E2 F4 | z2 c2 A2 B2 | G4 A3 G | AB c2 B2 A2 | B2 G2 G2 A2 | B2 A2 c3 B | A4 G4 | %44
w: * so'hu- * mo-|* * re,|pie- to- so'hu-|mo- * *||re, piu lu- cen-|te ch'al So- *|* le,|
 z2 D2 D2 E2 | F2 D2 D2 E2- | EF G2 D2 F2- | F2 E2 F3 E | D2 G2 F2 E2 | D2 G4 F2 | G2 B2 A2 G2 | %51
w: piu lu- cen-|te ch'al Sol perl'|_ e dia- man- *||ti, e- ra pe-|na si dol-|ce, e- ra pe-|
 F2 D2 E4 | D2 A4 B2- | BA G4 F2 | G4 z2 B2 | B2 B2 G4 | A8 | z4 A4 | c2 c2 B2 A2- | AB c4 B2 | %60
w: na so dol-|ce, si dol-||ce, in|quel bel vi-|so,|ch'io|non pos- so pen-|* * sar, che|
 A6 G2- | GF F4 E2 | F6 G2 | A2 B4 A2 | G3 F E2 G2 | F2 G2 A3 G | F4 E2 F2 | F2 F2 G2 A2 | %68
w: pe- na|_ _ ma- *|i, al-|tro sia ch'un|ben _ _ del|pa- ra- di- *|so, al- tro|sia ch'un ben del|
 B3 A G2 c2- | c2 B2 c2 G2 | c2 B2 A2 B2 | G4 F4- | F8- | F8 |] %74
w: pa- * ra- di-|* * so, del|pa- * * ra-|di- so.|_||
V:3
 F,4 F,2 F,2 | C,4 B,,4 | D,4 D,2 D,2 | C,2 C,2 B,,3 A,, | G,,2 F,,3 G,,A,,B,, | C,2 D,2 B,,4 | %6
w: Don- ne gen-|ti- li,|don- ne gen-|ti- li'et voi _|cor- te- * * *|* si'a- man-|
 A,,4 z4 | z2 D,2 D,2 C,2 | B,,2 A,,2 G,,4 | F,,2 F,2 F,2 E,2 | D,3 C, B,,4 | A,,2 B,,2 F,,4- | %12
w: ti,|che di sag-|gi pen- *|sier no- dri- te'il|co- * *|* * re,|
 F,,4 z4 | z4 F,4 | F,2 F,2 D,2 D,2 | F,2 C,D, E,F, G,2 | F,2 B,,C, D,E, F,2- | F,2 C,4 D,2 | %18
w: _|non|vi sia piu ver-|go- gna _ _ _ _|_ _ _ _ _ che|_ il do-|
 _E,4 D,2 G,,2 | G,,2 A,,2 B,,2 C,2 |"^b" D,2 D,2 E,4 | D,3 C, B,,2 A,,2 | G,,4 F,,4 | %23
w: lo- re, trag-|gia da gl'oc- chi|vo- sti'a- ma-|* * * ri|pian- ti,|
 C,4 C,2 F,,2 | C,4 F,,4- | F,,8 || B,,4 B,,2 B,,2 | F,,2 F,,2 C,2 C,2 | B,,2 G,,2 D,4 | %29
w: a- ma- ri|pian- ti.|_|Poi che da|que bei lu- mi'al-|tie- ri'et san-|
 A,,2 F,2 F,2 E,2 | D,2 G,,A,, B,,C,D,E, | F,2 C,2 G,4 | D,3 E, F,2 C,2 | G,4 C,2 F,2 | %34
w: ti, o- ve s'ha|po- sto'il _ _ _ _ _|pri- mo seg-|gio'a- * * *|mo- re, ver-|
 F,2 E,2 D,2 D,2 | C,4 G,,2 D,2 | C,3 B,, A,,2 B,,2 | G,,4 F,,4 | C,4 D,2 B,,2 | C,4 F,,2 F,2 | %40
w: so giu- sto mar-|tir pie- to-|* * * so'hu-|mo- re,|pie- to- so'hu-|mo- re, piu|
 F,2 _E,2 D,2 D,2 | G,4 z4 | z4 z2 C,2 | D,2 D,2 G,,2 G,,2 | A,,2 B,,2 B,,2 A,,2 | %45
w: lu- cen- ti ch'al|Sol',|piu|lu- cen- te ch'al|sol' perl' e dia-|
 D,3 C, B,,2 C,2- | C,2 G,,2 G,,2 A,,2 |"^#""^#""^-natural" B,,2 C,2 F,,4 | G,,4 A,,4 | B,,4 A,,4 | %50
w: man- * * ti,|_ piu lu- cen-|te ch'al Sol'|perl' e|dia- man-|
 G,,4 z4 | z8 | z2 D,2 C,2 G,,2 | G,,2 G,,2 D,4 | E,4 D,2 B,,2 | B,,2 B,,2 C,4 | F,,8 | %57
w: ti,||e- ra pe-|na si dol-|* ce, in|quel bel vi-|so,|
 z2 F,2 F,2 F,2 | C,2 C,2 D,4 | A,,4 z2 D,2 | D,2 D,2 C,3 B,, | A,,2 B,,2 C,4 | F,,4 z4 | z8 | %64
w: ch'io non pos-|so pe- *|sar, che|pe- na ma- *||i,||
 z2 C,2 C,2 C,2 | D,2 E,2 F,3 E, | D,4 C,2 A,,2 | B,,2 F,,2 C,4 | G,,4 C,4 | G,4 C,3 B,, | %70
w: al- tro sia|ch'un ben _ _|_ _ del|pa- ra di-|so, al-|tro sia ch'un|
 A,,2 G,,2 D,2 B,,2 | C,4 F,,2 B,,2- | B,,2 A,,2 B,,4 | F,,8 |] %74
w: ben dal pa- ra-|di- * *||so.|

